_includes/icons/color-palace.svg

<svg fill="#666" height="50" viewBox="0 0 48 48" width="50" xmlns="http://www.w3.org/2000/svg"><path d="m38 19-3-6-3 6z" fill="#8e24aa"/><path d="m16 19-3-6-3 6z" fill="#8e24aa"/><path d="m18 15h12v9h-12z" fill="#ce93d8"/><path d="m32 19h6v5h-6z" fill="#ce93d8"/><path d="m10 19h6v5h-6z" fill="#ce93d8"/><path d="m37 18v6h-26v-6h-6v25h38v-25z" fill="#e1bee7"/><g fill="#9c27b0"><path d="m33 43h-18c0-9 9-12 9-12s9 3 9 12z"/><path d="m43 18-3-6-3 6z"/><path d="m30 15-6-10-6 10z"/><path d="m11 18-3-6-3 6z"/></g><g fill="#8e24aa"><path d="m37 29-1.5-1-1.5 1v5h3z"/><path d="m14 29-1.5-1-1.5 1v5h3z"/><path d="m27 20-3-2-3 2v4h6z"/></g></svg>

<svg xmlns="http://www.w3.org/2000/svg" viewBox="0 0 48 48" width="50" height="50" fill="#666"><path d="M 38 19 L 35 13 L 32 19 Z" fill="#8e24aa"/><path d="M 16 19 L 13 13 L 10 19 Z" fill="#8e24aa"/><path d="M 18 15 L 30 15 L 30 24 L 18 24 Z" fill="#ce93d8"/><path d="M 32 19 L 38 19 L 38 24 L 32 24 Z" fill="#ce93d8"/><path d="M 10 19 L 16 19 L 16 24 L 10 24 Z" fill="#ce93d8"/><path d="M 37 18 L 37 24 L 11 24 L 11 18 L 5 18 L 5 43 L 43 43 L 43 18 Z" fill="#e1bee7"/><path d="M 33 43 L 15 43 C 15 34 24 31 24 31 C 24 31 33 34 33 43 Z" fill="#9c27b0"/><path d="M 43 18 L 40 12 L 37 18 Z" fill="#9c27b0"/><path d="M 30 15 L 24 5 L 18 15 Z" fill="#9c27b0"/><path d="M 11 18 L 8 12 L 5 18 Z" fill="#9c27b0"/><path d="M 37 29 L 35.5 28 L 34 29 L 34 34 L 37 34 Z" fill="#8e24aa"/><path d="M 14 29 L 12.5 28 L 11 29 L 11 34 L 14 34 Z" fill="#8e24aa"/><path d="M 27 20 L 24 18 L 21 20 L 21 24 L 27 24 Z" fill="#8e24aa"/></svg>
